X:1
T: Canty Jeanie Munro
C:J. Scott Skinner
R:Strathspey
Q: 232
K:Bb
M:4/4
L:1/16
|:F2|d3c B3F GB3 FB3|d3c B3F GB3 Af3|d3c B3F GB3 F3B|((3A2B2c2) ((3f2g2a2) bB3 B3F|
d3c B3F GB3 FB3|d3c B3F GB3 Af3|d3c B3F GB3 F3B|((3A2B2c2) ((3f2g2a2) bB3 B2a2|
((3b2f2d2) ((3B2F2D2) E3F GE3|DF3 B3G Ac3 c3a|((3b2f2d2) ((3B2F2D2) E3F GB3 ((3A2B2c2) ((3f2g2a2) bB3 B3a|
((3b2f2d2) ((3B2F2D2) E3F GE3|DF3 B3G Ac3 c4|d3c B3F ((3G2B2e2) ((3g2a2b2) |((3a2g2f2) ((3e2c2f2) dB3 B2:|
